X:1
T:Butcher's Hornpipe
C:anon.
L:1/8
M:4/4
I:linebreak $
K:G
V:1 treble 
V:1
 DB, | G,B,DB, G,B,DB, | G,2 G2 G2 AF | DFAF DFAF | D2 d2 d2 cB | cdec BcdB |$ ABcd ef g2 | %7
 g dec dBAG | D2 G2 G2 :: Bc | dBGB dBGB | ecAc ecAc | gfed fgae |$ f2 d2 d2 cB | cdec BcdB | %15
 ABcd ef g2 | gdec dBAG | D2 G2 G2 :| %18
